X: 4042
T: Blarney Pilgrim, The
R: jig
M: 6/8
K: Dmajor
ABd ABd|e2e efg|fed edB|ded dBA|
ABd ABd|e2e efg|fed edB|ded e3:|
aaa afd|edd fed|aaa afd|ede fab|
d'd'd' bad'|a2a fde|fff fed|edB d3:|

